X:1
T:Title
%%score { ( 1 3 ) | ( 2 4 ) }
L:1/8
M:9/8
K:G
V:1 treble nm="Grand Piano"
V:3 treble 
V:2 bass 
V:4 bass 
V:1
 z3 z3[Q:1/4=113] G2 G | G3- G2 D DGA | B3 G3 d2 d | d6 z3 |[M:3/4] [FA]6 |[M:3/8] G2 G | %6
[M:9/8] G3- G2 D DGA | B3 d3 [Ge]2 [Ge] | d6 z3 |[M:3/4] [B,G]6 |[M:3/8] [Ec]2 [Ec] | %11
[M:9/8] [Ec]3- [Ec]2 [Ec] cBA | G3 D3 d2 d | z3 z3 .d3 |[M:3/4] [GB]3 A3 |[M:3/8] G2 G | %16
[M:9/8] G3- G2 D DGA | B3 d3 [Ge]2 [Ge] | d6 z3 |[M:3/4] [B,G]6 |] %20
V:2
 z3 z3 [G,B,D]2 [G,B,D] | [G,B,D]3- [G,B,D]2 [G,B,] [G,B,]2[K:treble] [G,C] | %2
 [G,D]3 [G,B,D]3 [G,B,G]2 [G,B,G] | [G,G]3- [G,G]2- [G,DG] [A,^CG]2 [A,CG] | %4
[M:3/4][K:bass] [D,D]3 D,3 |[M:3/8] [G,B,D]2 [G,B,D] | %6
[M:9/8] [G,B,D]3- [G,B,D]2 [G,B,] [G,B,]2[K:treble] [G,C] | [G,D]3 [G,B,G]3[K:bass] [C,C]2 [E,C] | %8
 B,3 z3[K:bass] z3 |[M:3/4] G,,6 |[M:3/8] [C,G,]2 [C,G,] | %11
[M:9/8] [C,G,]3- [C,G,]2 [C,G,] [D,F,D]2 [D,F,C] | [G,B,]3 [G,B,]3[K:treble] [G,B,G]2 [G,B,G] | %13
 [G,B,G]3- [G,B,G]2 [G,DG][K:bass] [F,D]2 [G,DG] |[M:3/4] z2 z[K:treble] F3 | %15
[M:3/8] [G,B,D]2 [G,B,D] |[M:9/8] [G,B,D]3- [G,B,D]2 [G,B,] [G,B,]2 [G,C] | %17
 [G,D]3 [G,B,G]3[K:bass] [C,C]2 [E,C] | B,3 z3[K:bass] z3 |[M:3/4] G,,6 |] %20
V:3
 x9 | x9 | x9 | z3 B,2 B B2 A |[M:3/4] z2 z D3 |[M:3/8] x3 |[M:9/8] x9 | x9 | %8
 z3 B,2 B [DGB]2 [CFA] |[M:3/4] x6 |[M:3/8] x3 |[M:9/8] x9 | x9 | d3- d2 B A-[Ac]B |[M:3/4] x6 | %15
[M:3/8] x3 |[M:9/8] x9 | x9 | z3 B,2 B [DGB]2 [CFA] |[M:3/4] x6 |] %20
V:4
 x9 | x8[K:treble] x | x9 | B,3 z3 z3 |[M:3/4][K:bass] x6 |[M:3/8] x3 |[M:9/8] x8[K:treble] x | %7
 x6[K:bass] x3 | [G,G]3- [G,G]2- [G,DG][K:bass] D,2 D, |[M:3/4] x6 |[M:3/8] x3 |[M:9/8] x9 | %12
 x6[K:treble] x3 | x6[K:bass] x3 |[M:3/4] [D,D]6[K:treble] |[M:3/8] x3 |[M:9/8] x9 | %17
 x6[K:bass] x3 | [G,G]3- [G,G]2- [G,DG][K:bass] D,2 D, |[M:3/4] x6 |] %20

